src/shared/assets/userProfile/userProfile-default.svg

<svg width="76" height="76" viewBox="0 0 76 76" fill="none" xmlns="http://www.w3.org/2000/svg">
<mask id="mask0_90_25558" style="mask-type:alpha" maskUnits="userSpaceOnUse" x="0" y="0" width="76" height="76">
<rect width="76" height="76" rx="38" fill="black"/>
</mask>
<g mask="url(#mask0_90_25558)">
<path d="M33.8435 42.0818C34.3509 41.2434 35.4252 40.9211 36.3171 41.367C37.2551 41.8364 37.6355 42.9776 37.1667 43.9158C36.3824 45.4844 34.6646 45.8936 33.571 46.0223C32.3287 46.1684 30.9184 46.0651 29.6746 45.8992C28.4066 45.7302 27.1944 45.4793 26.3083 45.2733C25.8631 45.1697 25.4937 45.0758 25.2341 45.0076C25.1049 44.9737 25.0021 44.9463 24.9304 44.9266C24.8949 44.9168 24.8663 44.9087 24.8464 44.9031C24.8369 44.9005 24.8287 44.8979 24.823 44.8963C24.8203 44.8955 24.817 44.8948 24.8152 44.8943L24.8132 44.8934H24.8123C23.8035 44.6051 23.2187 43.5535 23.5066 42.5447C23.795 41.5362 24.8465 40.9512 25.8552 41.2391L25.8582 41.24C25.8609 41.2408 25.8657 41.2422 25.8718 41.244C25.8856 41.2478 25.9081 41.2535 25.9373 41.2615C25.996 41.2777 26.0851 41.3027 26.1999 41.3328C26.4302 41.3933 26.7644 41.4778 27.1697 41.5721C27.9856 41.7618 29.07 41.9851 30.1765 42.1326C31.3072 42.2834 32.3516 42.3392 33.1277 42.2479C33.5726 42.1954 33.7728 42.1162 33.8435 42.0818ZM36.9548 32.1531C37.3192 30.0865 39.2895 28.7059 41.3562 29.0701C43.423 29.4346 44.8036 31.4057 44.4392 33.4725L43.9988 35.9676C43.6342 38.0342 41.6631 39.414 39.5964 39.0496C37.5299 38.685 36.15 36.7139 36.5144 34.6473L36.9548 32.1531ZM21.3699 29.076C21.7343 27.0092 23.7054 25.6285 25.7722 25.993C27.8389 26.3575 29.2187 28.3286 28.8542 30.3953L28.4148 32.8904C28.0503 34.9571 26.0791 36.3368 24.0124 35.9725C21.9456 35.608 20.565 33.6369 20.9294 31.5701L21.3699 29.076Z" fill="black" fill-opacity="0.2"/>
<path d="M0 38C0 17.0132 17.0132 0 38 0C58.9868 0 76 17.0132 76 38C76 58.9868 58.9868 76 38 76C17.0132 76 0 58.9868 0 38Z" fill="black" fill-opacity="0.02"/>
<path d="M38 0.5C58.7107 0.5 75.5 17.2893 75.5 38C75.5 58.7107 58.7107 75.5 38 75.5C17.2893 75.5 0.5 58.7107 0.5 38C0.5 17.2893 17.2893 0.5 38 0.5Z" stroke="black" stroke-opacity="0.08"/>
</g>
</svg>

<svg xmlns="http://www.w3.org/2000/svg" fill="none" viewBox="0 0 76 76"><mask id="a" width="76" height="76" x="0" y="0" maskUnits="userSpaceOnUse" style="mask-type:alpha"><rect width="76" height="76" fill="#000" rx="38"/></mask><g mask="url(#a)"><path fill="#000" fill-opacity=".2" d="M33.844 42.082a1.9 1.9 0 0 1 3.323 1.834c-.785 1.568-2.502 1.978-3.596 2.106-1.242.146-2.653.043-3.896-.123a37 37 0 0 1-3.367-.626 39 39 0 0 1-1.378-.346l-.084-.024-.023-.007-.008-.002h-.002a1.9 1.9 0 0 1 1.042-3.655l.003.001.014.004.065.017q.09.026.263.072c.23.06.564.145.97.24.816.189 1.9.412 3.006.56 1.131.15 2.176.206 2.952.115.445-.053.645-.132.715-.166m3.11-9.929a3.8 3.8 0 1 1 7.485 1.32L44 35.967a3.8 3.8 0 0 1-7.485-1.32zM21.37 29.076a3.8 3.8 0 0 1 7.484 1.32l-.44 2.494a3.8 3.8 0 0 1-7.485-1.32z"/><path fill="#000" fill-opacity=".02" d="M0 38C0 17.013 17.013 0 38 0s38 17.013 38 38-17.013 38-38 38S0 58.987 0 38"/><path stroke="#000" stroke-opacity=".08" d="M38 .5C58.71.5 75.5 17.29 75.5 38S58.71 75.5 38 75.5.5 58.71.5 38 17.29.5 38 .5Z"/></g></svg>
